fs/calendar_clock_24_filled.svg

<svg viewBox="0 0 24 24" fill="none" xmlns="http://www.w3.org/2000/svg" height="1em" width="1em">
  <path d="M17.75 3C19.5449 3 21 4.45507 21 6.25V7H3V6.25C3 4.45507 4.45507 3 6.25 3H17.75ZM21 8.5V12.0218C19.9897 11.375 18.7886 11 17.5 11C13.9101 11 11 13.9101 11 17.5C11 18.7886 11.375 19.9897 12.0218 21H6.25C4.45507 21 3 19.5449 3 17.75V8.5H21ZM23 17.5C23 14.4624 20.5376 12 17.5 12C14.4624 12 12 14.4624 12 17.5C12 20.5376 14.4624 23 17.5 23C20.5376 23 23 20.5376 23 17.5ZM17.5 17.5001H19.5C19.7761 17.5001 20 17.7239 20 18.0001C20 18.2762 19.7761 18.5001 19.5 18.5001H17C16.7239 18.5001 16.5 18.2762 16.5 18.0001L16.5 17.9985L16.5 14.9999C16.5 14.7238 16.7239 14.4999 17 14.4999C17.2761 14.4999 17.5 14.7238 17.5 14.9999L17.5 17.5001Z" fill="#212121"/>
</svg>

<svg viewBox="0 0 24 24" fill="none" xmlns="http://www.w3.org/2000/svg" height="1em" width="1em">
  <path d="M17.75 3A3.25 3.25 0 0 1 21 6.25V7H3v-.75A3.25 3.25 0 0 1 6.25 3h11.5ZM21 8.5v3.522A6.5 6.5 0 0 0 12.022 21H6.25A3.25 3.25 0 0 1 3 17.75V8.5h18Zm2 9a5.5 5.5 0 1 0-11 0 5.5 5.5 0 0 0 11 0Zm-5.5 0h2a.5.5 0 1 1 0 1H17a.5.5 0 0 1-.5-.5v-3a.5.5 0 0 1 1 0v2.5Z" fill="#212121"/>
</svg>
